X: 14559
T: Gan Ainm
R: reel
M: 4/4
K: Dmixolydian
|:D2 F2 E2 G2|F2 D2 C2 E2|D2 F2 E2 G2|A2 E2 F2 D2:|
|:A2 E2 F2 D2|F2 D2 C2 A,2|D2 F2 G2 G2|A2 E2 F2 D2:|

